X:1
T:Sonata for Two Violins in F Major
T:Sonata for Two Violins in F Major
T:Op. 3, No. 4
T:Jean-Marie Leclair
C:Jean-Marie Leclair
%%score [ ( 1 2 3 ) ( 4 5 6 ) ]
L:1/8
Q:1/4=120
M:4/4
K:F
V:1 treble nm="Violin I"
V:2 treble 
V:3 treble 
V:4 treble nm="Violin II"
V:5 treble 
V:6 treble 
V:1
"^Allegro assai" c2 z/ c/d/e/ f/c/d/e/ f/c/d/e/ | f/c/d/e/ f/g/e/f/ g/f/g/a/ g/a/b/g/ | %2
 af z F EFED | EFEC FDGG, | C/g/a/b/ c'/g/a/b/ c'/c'/c'/c'/ c'/c'/c'/c'/ | %5
 c'/f/g/a/ b/f/g/a/ b/b/b/b/ b/b/b/b/ | ba/g/ af C2 z/ C/D/E/ | %7
 F/C/D/E/ F/C/D/E/ F/C/D/E/ F/G/E/F/ | G/F/G/A/ G/A/B/G/ A/B/A/G/ F/G/F/_E/ | DBF_E DCDB, | %10
 _ECFF B/B/d/B/ d/B/d/B/ | G/G/B/G/ B/G/B/G/ E/E/G/E/ G/E/G/E/ | Cf{a} gf/e/ fA{c} BA/G/ | %13
 AF{A} GF/E/ Fc/c/ cA/A/ | AF/F/ FF/F/ F2 z c | (f>g) (Tg3/2f/4g/4) (a>b) (Tb3/2a/4b/4) | %16
 c'b/c'/ d'f Tef z g | (a/b/c'/d'/){c'} Tb2{b} Ta2 z a | %18
 (g/4f/4e3/2) (f/4e/4d3/2) (e/4d/4c3/2) z F | EcD=B .C/(E/4F/4G/).E/ Cg | a(F/E/ D)f g(E/D/ C)e | %21
 f(D/C/ =B,)d eCfD | gEaF gEaF | ga/g/ f/e/d/c/{c'} T=b2- b/g/a/b/ | c' c'2 =b/a/ g g2 a/b/ | %25
 c' c'2 =b/a/ g g2 g | a"^♮"Ta- a/=b/c'/a/ bTb- b/c'/d'/b/ | %27
 c'Tc'- c'/d'/e'/c'/ d'Td'- d'/e'/f'/d'/ | e'4- e'd'/c'/ Td'2 | c'2 z F EDEC | FDGG, c2 z/ c/d/e/ | %31
 f/c/d/e/ f/c/d/e/ f/c/d/e/ f/g/e/f/ | g/f/g/a/ g/a/b/g/ a/f/c/A/ F/G/_E/F/ | DBF_E DCDB, | %34
 _ECFF B,/f/g/a/ b/f/g/a/ | b/f/g/a/ b/f/g/a/ x/ f/f/f/ f/f/f/f/ | f/f/f/f/ f/f/f/f/ g/ x/ x x2 | %37
 c'/g/a/b/ c'/g/a/b/ x/ g/g/g/ g/g/g/g/ | g/g/g/g/ g/g/g/g/ a/ x/ x x2 | %39
 d'/a/b/c'/ d'/a/b/c'/ x/ a/a/a/ a/a/a/a/ | a/a/a/a/ a/a/a/a/ b x{b} ag/^f/ | %41
 gB{d} cB/A/ BG{B} AG/^F/ | GB/B/ BG/G/ GG/G/ GG/G/ | G2 z d gTg- g/a/b/g/ | %44
 aTa- a/b/c'/a/ b (Tb2 a/g/) | (3(a/^c'/d'/) d z2!p! B2 z2 | d2 z2 d2 _e2 | %47
 A2 z!f! d'/c'/ (=b/g/)(b/g/) (b/g/)(b/g/) | %48
 (c'/g/)(c'/g/) (c'/g/)(c'/g/) (=b/g/)(b/g/) (b/g/)(b/g/) | %49
 (c'/g/)(c'/g/) (c'/g/)(c'/g/) (a/f/)(a/f/) (a/f/)(a/f/) | %50
 (b/f/)(b/f/) (b/f/)(b/f/) (a/f/)(a/f/) (a/f/)(a/f/) | bB z f bb/a/ g/f/e/d/ | %52
 ^cA, z e aa/g/ ^f/_e/d/=c/ | =BG, z d gf/e/{g} fe/d/ | ^c/e/c/A/ d/f/d/A/ e/g/e/A/ d/f/d/A/ | %55
 ^c/e/c/A/ A2 A2 A2 | A2 a/a/a/a/ a/a/a/a/ g/g/g/g/ | g/g/g/g/ f/f/f/f/ e/e/e/e/ e/e/e/e/ | %58
 d2 z/ d/e/^f/ g/d/e/f/ g/d/e/f/ | g/d/e/^f/ g/d/e/f/ gf/e/ d/c/=B/A/ | =BG/A/ GF EFED | %61
 CFED ED/C/ =B,G, | c2 z/ c/d/e/ f/c/d/e/ f/c/d/e/ | f/c/d/e/ f/c/d/e/ fe/d/ c/B/A/G/ | %64
 A/A/c/A/ c/A/c/A/ F/F/A/F/ A/F/A/F/ | d/d/f/d/ f/d/f/d/ B/B/d/B/ d/B/d/B/ | %66
 Gc- c/c/d/e/ f/c/d/e/ f/c/d/e/ | f_EDE DEDE | D/d/=e/^f/ g/d/e/f/ g/d/e/f/ g/d/e/f/ | g=FEF EFEF | %70
 E/e/f/g/ a/e/f/g/ a/e/f/g/ a/e/f/g/ | aGFG FGFG | F/f/g/a/ b/f/g/a/ b/b/b/b/ b/b/b/b/ | %73
 b/e/f/g/ a/e/f/g/ a/a/a/a/ a/a/a/a/ | a/d/e/f/ g/d/e/f/ g/a/b/a/ g/f/e/d/ | ec f2 C2 z/ C/D/E/ | %76
 F/C/D/E/ F/C/D/E/ F/C/D/E/ F/G/E/F/ | G/F/G/A/ G/A/B/G/ Af{a} gf/e/ | fA{c} BA/G/ AF{A} GF/E/ | %79
 Fc/c/ c/c/c/c/ cA/A/ A/A/A/A/ | AF/F/ F/F/F/F/ FF/F/ F/F/F/F/ | F8 |] %82
[M:3/4]"^Aria"[Q:1/4=70]"^Andante grazioso" A3 B c2 | (c2 TB2) A2 | B2 c4 | A3 B AB | c2 a>g f2 | %87
 B2 b>a g2 | A2 c'>b a2 | Tg6 | A3 B c2 | (c2 TB2) A2 | B2 c4 | A4 AB | cd _e4 | d2 =e2 f2 | %96
 g2 Tg3 f |1 f6 :|2 f4 c2 |: f3 g ag | f2 TedcB | A2 A2 A2 | TA4 c2 | d3 (d/e/ f).d | Td2 c2 A2 | %105
 BBBBBB | (B2 A2) c2- | c2 (B<A)(G<F) | (EF) (TF3 E/F/) | GA B2 A2 | TA2 G2 c2- | %111
 c/(A/=B/c/) (Tc3/2B/4c/4) d2- | d/(=B/c/d/) (Td3/2c/4d/4) e2- | e/(c/d/e/) fga{g}f | d2 g>f g2 | %115
 z2 f>e f2 | z2 edef | ga _b4 | a2 =bg c'2- | c'2 (T=ba)(gf) | (edc_BAG) | A3 B c2 | (c2 TB2) A2 | %123
 B2 c4 | A3 B AB | c2 a>g f2 | B2 b>a g2 | A2 c'>b a2 | Tg6 | A3 B c2 | (c2 TB2) A2 | B2 c4 | %132
 A4 AB | cd _e4 | d2 =e2 f2 | g2 Tg3 f | f4 c2 | TA3 G A2 | B2 c2 d2 | (cAF)(_eTdc) | d2{c} B2 z2 | %141
 D4 z2 | _E4 z2 | G4 z2 | G4 =e2 | T^c3 =B c2 | d2 e2 f2 | (e^cA)(gTfe) | f2 fg a2 | g2 Tf4 | %150
 e2 a>b a2 | z2 g>f g2 | z2 f>e f2- | f>g Te3 d | d2 f>g f2 | z2 g2 g2 | g2 e>f e2 | z2 f2 f2 | %158
 f2 f2 ba | Tg2 f2 fe | Td2 c2 ba | gf e2 (Tf3/2e/4f/4) | (gd_e=Bc_B) | A3 B c2 | (c2 TB2) A2 | %165
 B2 c4 | A3 B AB | c2 a>g f2 | B2 b>a g2 | A2 c'>b a2 | %170
 Tg3- g/4(a/4g/4f/4 e/4d/4c/4B/4A/4G/4F/4E/4) | A3 B c2 | (c2 TB2) A2 | B2 c4 | A4 AB | cd _e4 | %176
 d2 =e2 f2 | g2 Tg3 f | f6 :|[M:12/8]"^Giga"[Q:1/4=170]"^Allegro moderato" .f.e | %180
 .f.A.c .F.f.a gEG Cgb | agf (g/a/b).f efg ccB | Afe fAc Egf eEG | FGA BGB c3 (gec) | %184
 (BGF) ECb (agf) (a^fd) | (cAG) ^FDc' (=bag) ec'e | d=bd cac =BgB AfA | =BGc G,cB c2 z c2 z | %188
 E2 z C2 z F2 z d2 z | ^F2 z D2 z GA=B ceg | =Bdg Acf GBe FAd | GFE FGG, C3 z :: c=B | %193
 cEG Cce d=B,D G,df | edc (d/e/f).c =Bcd GGF | Ec=B cEG =B,dc BB,G, | CDE FDF GGF ECg | %197
 aFA cfa g2 E E2 g | fDF =Bdf e2 C C2 e | d=B,D ^G=Bd c2 B A2 e | fDF Adf e2 A, A,2 e | %201
 fDF Ad^f (^gfe) (a=g=f) | (edc) T=B2 A A3 (Acd) | (_e^fg) acA (BAG) (GBc) | %204
 (_d=ef) gBG (AGF) ABc | d2 B, B,2 d cA,C FAc | d2 B, B,2 d cA,C FAc | BG,B, EGB (AGF) (BAG) | %208
 cBA GAF (EDC) A,CF | (Ac_e) (gTfe) (dcB) =B,DG | (=Bdf) (aTgf) (edc) A,c_e | B,df C=eg Dfa A,c_e | %212
 B,df C=eg Dfa Egb | (agf) (cfe) f2 z F2 z | _E2 z A,2 z B,2 z G2 z | F2 z =B,2 z C2 z cAF | %216
 dBG ecA faf cAF | dBG ecA fdB gec | f2 B c2 C F3 z :| %219
V:2
 x8 | x8 | x8 | x8 | x8 | x8 | x8 | x8 | x8 | x8 | x8 | x8 | x8 | x4 x A/A/ AF/F/ | %14
 FC/C/ CA,/A,/ A,2 x2 | [Ac]3/2 x/ x2 x4 | x8 | x8 | x8 | x8 | x8 | x8 | x8 | x8 | x8 | x8 | x8 | %27
 x8 | x8 | x8 | x8 | x8 | x8 | x8 | x8 | x4 b/B/B/B/ B/B/B/B/ | %36
 B/B/B/B/ B/B/B/B/ B/g/a/b/ c'/g/a/b/ | x4 c'/c/c/c/ c/c/c/c/ | %38
 c/c/c/c/ c/c/c/c/ c/a/b/c'/ d'/a/b/c'/ | x4 d'/d/d/d/ d/d/d/d/ | d/d/d/d/ d/d/d/d/ dg x2 | x8 | %42
 x G/G/ GD/D/ DB,/B,/ B,G,/G,/ | G,2 x2 x4 | x8 | x4 G2 x2 | ^F2 x2 G2 [CG]2 | [D^F]2 x x x4 | x8 | %49
 x8 | x8 | x8 | x8 | x8 | x8 | x2 D2 ^C2 D2 | A,2 d/d/d/d/ d/d/d/d/ d/d/d/d/ | %57
 ^c/c/c/c/ d/d/d/d/ d/d/d/d/ c/c/c/c/ | x8 | x8 | x8 | x8 | x8 | x8 | x8 | x8 | x8 | x8 | x8 | x8 | %70
 x8 | x8 | x8 | x8 | x8 | x8 | x8 | x8 | x8 | x A/A/ A/A/A/A/ AF/F/ F/F/F/F/ | %80
 FC/C/ C/C/C/C/ CA,/A,/ A,/A,/A,/A,/ | A,8 |][M:3/4] F3 G A2 | (A2 TG2) F2 | G2 E4 | F3 G FG | %86
 A2 x4 | G2 x4 | F2 x4 | x6 | F3 G A2 | (A2 TG2) F2 | G2 G4 | G2 FEFG | A x x4 | F2 B2 A2 | %96
 B2 c3 z |1 A6 :|2 c4 x2 |: x6 | x6 | F2 F2 F2 | TF4 x2 | x6 | x4 F2- | F6- | F4 x2 | x6 | x6 | %109
 x6 | x6 | x6 | x6 | x6 | x2 e>d e2 | x2 d>c d2 | x2 c=Bcd | e x x4 | x6 | x6 | x6 | F3 G A2 | %122
 (A2 TG2) F2 | G2 E4 | F3 G FG | A2 x4 | G2 x4 | F2 x4 | x6 | F3 G A2 | (A2 TG2) F2 | G2 G4 | %132
 G2 FEFG | A x x4 | F2 B2 A2 | B2 c3 z | [Ac]4 x2 | x6 | x6 | x6 | x6 | _A,4 x2 | G,4 x2 | %143
 =B,4 x2 | C4 x2 | x6 | x6 | x6 | x6 | e2 Td4 | ^c2 f>g f2 | x2 e>d e2 | x2 d>^c d2- | d>e T^c3 x | %154
 D2 d>e d2 | x2 d2 d2 | (d=B) c>d c2 | x2 c2 c2 | (cA) _B2 dc | B2 A2 x2 | x4 dc | BA [Gc]2 x2 | %162
 x6 | F3 G A2 | (A2 TG2) F2 | G2 E4 | F3 G FG | A2 x4 | G2 x4 | F2 x4 | x6 | F3 G A2 | %172
 (A2 TG2) F2 | G2 G4 | G2 FEFG | A x x4 | F2 B2 A2 | B2 c3 z | A6 :|[M:12/8] x2 | x12 | x12 | x12 | %183
 x12 | x12 | x12 | x12 | x12 | x12 | x12 | x12 | x10 :: x2 | x12 | x12 | x12 | x12 | x12 | x12 | %199
 x12 | x12 | x12 | x12 | x12 | x12 | x12 | x12 | x12 | x12 | x12 | x12 | x12 | x12 | x12 | x12 | %215
 x12 | x12 | x12 | x10 :| %219
V:3
 x8 | x8 | x8 | x8 | x8 | x8 | x8 | x8 | x8 | x8 | x8 | x8 | x8 | x8 | x8 | x8 | x8 | x8 | x8 | %19
 x8 | x8 | x8 | x8 | x8 | x8 | x8 | x8 | x8 | x8 | x8 | x8 | x8 | x8 | x8 | x8 | x8 | x8 | x8 | %38
 x8 | x8 | x8 | x8 | x8 | x8 | x8 | x8 | x8 | x8 | x8 | x8 | x8 | x8 | x8 | x8 | x8 | x2 F2 E2 F2 | %56
 E2 x2 x4 | x8 | x8 | x8 | x8 | x8 | x8 | x8 | x8 | x8 | x8 | x8 | x8 | x8 | x8 | x8 | x8 | x8 | %74
 x8 | x8 | x8 | x8 | x8 | x8 | x8 | x8 |][M:3/4] x6 | x6 | x6 | x6 | x6 | x6 | x6 | x6 | x6 | x6 | %92
 x6 | x6 | x6 | B,2 x4 | x6 |1 F6 :|2 A4 x2 |: x6 | x6 | x6 | x6 | x6 | x6 | x6 | x6 | x6 | x6 | %109
 x6 | x6 | x6 | x6 | x6 | x6 | x6 | x6 | x6 | x6 | x6 | x6 | x6 | x6 | x6 | x6 | x6 | x6 | x6 | %128
 x6 | x6 | x6 | x6 | x6 | x6 | B,2 x4 | x6 | x6 | x6 | x6 | x6 | x6 | x6 | x6 | x6 | x6 | x6 | x6 | %147
 x6 | x6 | x6 | x6 | x6 | x6 | x6 | x6 | x6 | x6 | x6 | x6 | x6 | x6 | x6 | x6 | x6 | x6 | x6 | %166
 x6 | x6 | x6 | x6 | x6 | x6 | x6 | x6 | x6 | x6 | B,2 x4 | x6 | c6 :|[M:12/8] x2 | x12 | x12 | %182
 x12 | x12 | x12 | x12 | x12 | x12 | x12 | x12 | x12 | x10 :: x2 | x12 | x12 | x12 | x12 | x12 | %198
 x12 | x12 | x12 | x12 | x12 | x12 | x12 | x12 | x12 | x12 | x12 | x12 | x12 | x12 | x12 | x12 | %214
 x12 | x12 | x12 | x12 | x10 :| %219
V:4
 z8 | z8 | F2 z/ F/A/=B/ c/G/A/B/ c/G/A/B/ | c/G/A/=B/ c/d/B/c/ d/c/d/e/ d/e/f/d/ | %4
 ec z2 z/ A/B/c/ d/A/B/c/ | d/d/d/d/ d/d/d/d/ d/G/A/B/ c/G/A/B/ | cd/e/ f2- fg/f/ e/d/c/B/ | %7
 AfcB AGAF | BGcC F2 z/ F/G/A/ | B/F/G/A/ B/F/G/A/ B/F/G/A/ B/c/A/B/ | %10
 c/B/c/d/ c/d/_e/c/ d/d/f/d/ f/d/f/d/ | B/B/d/B/ d/B/d/B/ G/G/B/G/ B/G/B/G/ | %12
 EA{c} BA/G/ Af{a} gf/e/ | fA{c} BA/G/ Af/f/ fc/c/ | fa/a/ af/f/ f2 z2 | %15
 z2 z c (f>g) (Tg3/2f/4g/4) | ag/a/ bB x!p! ccc | cccc!f! c x x2 | EcD=B .C/(E/4F/4G/).E/ Ca | %19
 (g/4f/4e3/2) (f/4e/4d3/2) (e/4d/4c3/2) z E | F(a/g/ f)D E(g/f/ e)C | D(f/e/ d)=B, CeDf | %22
 EgFa EgFa | EcAF G/D/=B,/D/ G,2 |!p! eeee eeee | eeee e2 c2 | c2 d2 d2 e2 | e2 f2 f2 g2 | %28
 g x x2!f! G2 z/ G/A/=B/ | c/G/A/=B/ c/G/A/B/ c/G/A/B/ c/d/B/c/ | %30
 d/c/d/e/ d/e/f/d/ e/f/e/d/ c/d/_B/c/ | AfcB AGAF | BGcC F2 z/ F/G/A/ | %33
 B/F/G/A/ B/F/G/A/ B/F/G/A/ B/c/A/B/ | c/B/c/d/ c/d/_e/c/ dB,DF | DB,DF D/D/D/D/ D/D/D/D/ | %36
 D/D/D/D/ D/D/D/D/ _EC=EG | ECEG E/E/E/E/ E/E/E/E/ | E/E/E/E/ E/E/E/E/ FD^FA | %39
 ^FDFA F/F/F/F/ F/F/F/F/ | ^F/F/F/F/ F/F/F/F/ GB{d} cB/A/ | BG{B} AG/^F/ GB{d} cB/A/ | %42
 z g/g/ gb/b/ bg/g/ gg/g/ | g2 z2!p! B2 z2 | d2 z2 d2 z2 | ^F2 z!f! d gTg- g/a/b/g/ | %46
 aTa- a/b/c'/a/ b Tb2 a/g/ | (3(a/^c'/d'/) d z ^f (g/=f/)(g/f/) (g/f/)(g/f/) | %48
 (g/_e/)(g/e/) (g/e/)(g/e/) (f/d/)(f/d/) (f/d/)(f/d/) | %49
 (_e/c/)(e/c/) (e/c/)(e/c/) (f/e/)(f/e/) (f/e/)(f/e/) | %50
 (f/d/)(f/d/) (f/d/)(f/d/) (_e/c/)(e/c/) (e/c/)(e/c/) | (d/B/)(d/B/) B,2 z4 | z ^ccc d2 z2 | %53
 z =BBB ^c2 d2 | A2 A2 A2 A2 | A2 d/f/d/A/ e/g/e/A/ d/f/d/A/ | %56
 ^c/e/c/A/ A/A/A/A/ B/B/B/B/ B/B/B/B/ | A/A/A/A/ A/A/A/A/ B/B/B/B/ A/A/A/A/ | DD/E/ DC =B,CB,A, | %59
 G,c=BA BA/G/ ^FD | G2 z/ G/A/=B/ c/G/A/B/ c/G/A/B/ | c/G/A/=B/ c/G/A/B/ cB/A/ G/F/E/D/ | %62
 Ec/d/ c_B ABAG | FBAG AG/F/ EC | F/f/a/f/ a/f/a/f/ A/A/c/A/ c/A/c/A/ | %65
 B/B/d/B/ d/B/d/B/ G/G/B/G/ B/G/B/G/ | EC z2 z B,A,B, | A,/F/G/A/ B/F/G/A/ B/F/G/A/ B/F/G/A/ | %68
 BC=B,C B,CB,C | =B,/G/A/=B/ c/G/A/B/ c/G/A/B/ c/G/A/B/ | dD^CD CDCD | %71
 ^C/A/=B/^c/ d/A/B/c/ d/A/B/c/ d/A/B/c/ | d2 z2 z/ G/A/_B/ c/G/A/B/ | %73
 c/c/c/c/ c/c/c/c/ c/F/G/A/ B/F/G/A/ | B/B/B/B/ B/B/B/B/ B/B/B/B/ B/B/B/B/ | B2 Af f2 e2 | %76
 fBAG ABAF | BGcC FA{c} BA/G/ | Af{a} gf/e/ fA{c} BA/G/ | x4 x f/f/ f/f/f/f/ | %80
 fa/a/ a/a/a/a/ af/f/ f/f/f/f/ | f8 |][M:3/4] F6 | B,2 C2 D2 | C4 C2 | F2 f>e f2 | z2 f2 c2 | %87
 z2 g2 e2 | z2 A2 f2 | Te6 | c3 B A2 | D2 E2 F2 | F2 TE4 | F2 a>g f2 | z2 c2 A2 | B2 g2 cf | %96
 db Te3 f |1 f6 :|2 f4 z2 |: A2 A2 A2 | TA4 c2 | f3 g ag | f4 A2 | BBBBBB | B2 A2 c2 | %105
 d3 (d/e/ f).d | Td2 c2 z2 | z2 c4- | c2 (B<A)(G<F) | EF G2 F2 | (F2 E2) E2 | A2 z2"^♮" TA2 | %112
 =B2 z2 TB2 | c2 z2 d2 | T=B2 z2 _B2 | A2 z2 A2 | =B3 F ED | C2 g2 e2 | f2 d2 c2 | A2!p! G2 G,2 | %120
 C3 C DE |!f! F6 | B,2 C2 D2 | C4 C2 | F2 f>e f2 | z2 f2 c2 | z2 g2 e2 | z2 A2 f2 | %128
 Te2 z/4 (C/4D/4E/4F/4G/4A/4B/4) (TB3/2A/4B/4) | c3 B A2 | D2 E2 F2 | F2 TE4 | F2 a>g f2 | %133
 z2 c2 A2 | B2 g2 cf | db Te3 f | f4 z2 | _E4 z2 | D4 z2 | F4 z2 | F4 d2 | T=B3 A B2 | c2 d2 _e2 | %143
 (d=BG)(fT_ed) | _e2 c2 z2 | B4 z2 | A4 z2 | A4 z2 | A2 de f2 | A2 A4 | A2 z2 d2 | B2 z2 ^c2 | %152
 A2 z2 A2 | B2 A2 G2 | F4 z2 | G2 G2 F2 | E4 z2 | F2 F2 _E2 | D4 f=e | Td2 c2 ba | Tg2 f2 fe | %161
 dc B2 A2 | (E=BcFEG) | F6 | B,2 C2 D2 | C4 C2 | F2 f>e f2 | z2 f2 c2 | z2 g2 e2 | z2 A2 f2 | Te6 | %171
 c3 B A2 | D2 E2 F2 | F2 TE4 | F2 a>g f2 | z2 c2 A2 | B2 g2 cf | db Te3 f | f6 :|[M:12/8] z z | %180
 z .f.e .f.A.c Egf eEG | FGA BGB ccB Afe | fAc Ffa gEG Cgb | agf (g/a/b).f edc c2 z | %184
 E2 z C2 z F2 z d2 z | ^F2 z D2 z GA=B ceg | =Bdg Acf GBe FAd | GFE FGG, C2 z (gec) | %188
 (BGF) ECb (agf) (a^fd) | (cAG) ^FDc' (=bag) ec'e | d=bd cac =BgB AfA | =BGc G,cB c3 z :: z z | %193
 z c=B cEG =B,dc cB,G, | CDE FDF GGF Ec=B | cEG Cce d=B,D G,df | edc (d/e/f).c =Bcd G2 E | %197
 F3 z2 F EGc egE | D2 d d2 D CEA ceC | =B,3 E3 A2 E A,2 ^c | d2 D D2 d =cA,C EA^c | %201
 d2 D D2 =C =B,2 ^G C2 =B | (c=BA) T^G2 A AA=G ^F_ED | C3 ^F3 GG=F E_DC | B,3 E3 F3 FGA | %205
 B,DF BdG, A,2 A A2 A, | B,DF BdB, A,2 A A2 A, | G,2 z C2 z F2 z G2 z | AGF B,CD C2 z F2 z | %209
 _E2 z A,2 z B,2 z G2 z | F2 z =B,2 z C2 z cAF | dBG ecA faf cAF | dBG ecA fdB gec | %213
 f2 B c2 C F2 z A,CF | (Ac_e) (gTfe) (dcB) =B,DG | (=Bdf) (aTgf) (edc) A,c_e | B,df Ceg Dfa A,c_e | %217
 B,df Ceg Dfa Egb | (agf) (cfe) f3 z :| %219
V:5
 x8 | x8 | x8 | x8 | x8 | x8 | x8 | x8 | x8 | x8 | x8 | x8 | x8 | x4 x2 x f/f/ | %14
 cc/c/ cc/c/ c2 x2 | x8 | x4 cFFF | FFEE FcfF | x8 | x8 | x8 | x8 | x8 | x8 | cccc cccc | %25
 cccc c2 E2 | F2 F2 G2 G2 | A2 A2 =B2 B2 | cgec x4 | x8 | x8 | x8 | x8 | x8 | x8 | %35
 x4 z/ _A,/A,/A,/ A,/A,/A,/A,/ | _A,/A,/A,/A,/ A,/A,/A,/A,/ G, x x2 | %37
 x4 z/ B,/B,/B,/ B,/B,/B,/B,/ | B,/B,/B,/B,/ B,/B,/B,/B,/ A, x x2 | x4 x/ C/C/C/ C/C/C/C/ | %40
 C/C/C/C/ C/C/C/C/ _B, x x2 | x8 | Bd/d/ dd/d/ dd/d/ dB/B/ | B2 x2 G2 x2 | ^F2 x2 G2 x2 | %45
 D2 x2 x4 | x8 | x8 | x8 | x8 | x8 | x8 | x GGG F2 x2 | x FFF E2 D2 | A2 D2 ^C2 D2 | A,2 x2 x4 | %56
 x2 ^F/F/F/F/ G/G/G/G/ E/E/E/E/ | F/F/F/F/ F/F/F/F/ G/G/G/G/ A/A/A/A/ | x8 | x8 | x8 | x8 | x8 | %63
 x8 | x8 | x8 | x8 | x8 | x8 | x8 | x8 | x8 | x8 | x8 | x8 | [CG]2 [CF][Ac] [GB]2 [GB]2 | %76
 [FA] x x2 x4 | x8 | x8 | Af/f/ f/f/f/f/ fc/c/ c/c/c/c/ | cc/c/ c/c/c/c/ cc/c/ c/c/c/c/ | c8 |] %82
[M:3/4] x6 | x6 | x6 | x6 | x2 c2 A2 | x2 e2 c2 | x2 F2 c2 | c6 | A3 G F2 | B,2 C2 D2 | C2 C4 | %93
 x6 | x2 A2 F2 | x6 | x6 |1 c6 :|2 c4 x2 |: F2 F2 F2 | TF4 x2 | x6 | x4 F2- | F6- | F4 x2 | x6 | %106
 x6 | x6 | x6 | C z z2 C2 | C4 C2 | F2 x2 TF2 | G2 x2 TG2 | A2 x2 F2 | G2 x2 E2 | F2 x2 D2 | %116
 G3 x x2 | x2 e2 c2 | c2 F2 E2 | F2 x4 | x6 | x6 | x6 | x6 | x6 | x2 c2 A2 | x2 e2 c2 | x2 F2 c2 | %128
 c2 x4 | A3 G F2 | B,2 C2 D2 | C2 C4 | x6 | x2 A2 F2 | x6 | x6 | x6 | C4 x2 | B,4 x2 | A,4 x2 | %140
 B,4 x2 | x6 | x6 | x6 | x6 | G4 x2 | F4 x2 | ^C4 x2 | D2 x4 | ^C2 D4 | E2 x2 D2 | G2 x2 E2 | %152
 F2 x2 F2 | G2 A2 A,2 | D4 x2 | =B,2 B,2 B,2 | C4 x2 | A,2 A,2 A,2 | B,4 x2 | x4 dc | B2 A2 x2 | %161
 x4 F2 | C x x4 | x6 | x6 | x6 | x6 | x2 c2 A2 | x2 e2 c2 | x2 F2 c2 | c6 | A3 G F2 | B,2 C2 D2 | %173
 C2 C4 | x6 | x2 A2 F2 | x6 | x6 | c6 :|[M:12/8] x2 | x12 | x12 | x12 | x12 | x12 | x12 | x12 | %187
 x12 | x12 | x12 | x12 | x10 :: x2 | x12 | x12 | x12 | x12 | x12 | x12 | x12 | x12 | x12 | x12 | %203
 x12 | x12 | x12 | x12 | x12 | x12 | x12 | x12 | x12 | x12 | x12 | x12 | x12 | x12 | x12 | x10 :| %219
V:6
 x8 | x8 | x8 | x8 | x8 | x8 | x8 | x8 | x8 | x8 | x8 | x8 | x8 | x8 | x8 | x8 | x8 | x8 | x8 | %19
 x8 | x8 | x8 | x8 | x8 | x8 | x8 | x8 | x8 | x8 | x8 | x8 | x8 | x8 | x8 | x8 | x8 | x8 | x8 | %38
 x8 | x8 | x8 | x8 | x8 | x8 | x8 | x8 | x8 | x8 | x8 | x8 | x8 | x8 | x8 | x8 | x2 F2 E2 F2 | %55
 E2 x2 x4 | x8 | x8 | x8 | x8 | x8 | x8 | x8 | x8 | x8 | x8 | x8 | x8 | x8 | x8 | x8 | x8 | x8 | %73
 x8 | x8 | x8 | x8 | x8 | x8 | x8 | x8 | x8 |][M:3/4] x6 | x6 | x6 | x6 | x6 | x6 | x4 F2 | x6 | %90
 x6 | x6 | x6 | x6 | x6 | x6 | x6 |1 F6 :|2 F4 x2 |: x6 | x6 | x6 | x6 | x6 | x6 | x6 | x6 | x6 | %108
 x6 | x6 | x6 | x6 | x6 | x6 | x6 | x6 | x6 | x6 | F2 x4 | x6 | x6 | x6 | x6 | x6 | x6 | x6 | x6 | %127
 x4 F2 | x6 | x6 | x6 | x6 | x6 | x6 | x6 | x6 | x6 | x6 | x6 | x6 | x6 | x6 | x6 | x6 | x6 | x6 | %146
 x6 | x6 | x6 | x6 | A,2 x4 | x6 | x6 | x6 | x6 | x6 | x6 | x6 | x6 | x6 | x6 | x6 | x6 | x6 | x6 | %165
 x6 | x6 | x6 | x6 | x4 F2 | x6 | x6 | x6 | x6 | x6 | x6 | x6 | x6 | F6 :|[M:12/8] x2 | x12 | x12 | %182
 x12 | x12 | x12 | x12 | x12 | x12 | x12 | x12 | x12 | x10 :: x2 | x12 | x12 | x12 | x12 | x12 | %198
 x12 | x12 | x12 | x12 | x12 | x12 | x12 | x12 | x12 | x12 | x12 | x12 | x12 | x12 | x12 | x12 | %214
 x12 | x12 | x12 | x12 | x10 :| %219

